!! 00000] TT[00
!! NN
!!!OTL: Bu pa huangshui chong shanglai
!!!ARE: Asia, China,ÿHenan, Kaifeng
!! Ethnic Group: Han
!! IV, 116
!!!SCT: C1307
!!!YEM: Copyright 1995, estate of Helmut Schaffrath.
**kern
*ICvox
*Ivox
*M2/4
*k[f#]
*G:
{8b
8g
8a
8a
=1
8a
8e
4g
=2
4g
8dd
8dd
=3
4g
4g}
=4
{8g
8a
8b
8dd
=5
4g
4g
=6
4g
8dd
8dd
=7
4g
4g}
=8
{8g
8b
8a
8g
=9
8a
8a
4e
=10
4g
8dd
8dd
=11
4g
4g}
=12
{8g
8a
8dd
8e
=13
4g
4g
=14
4g
8dd
8dd
=15
4g
4g}
==
!!!AGN: Haozi, Dawo haozi.
!!    Zhu huanghe dadi shi chang, Tongyi dongzuo, Tiaojie jingli
!! In Shandong gibt es viele dieser Arbeitslieder, in Henan weniger.
!!    Sehr typisch fuer dieses Thema: Ueberschwemmung des Huanghe
!!    Vereinzelt Verzierungen.
!!!ONB: ESAC (Essen Associative Code) Database: CHINA
!!!AMT: simple duple
!!!AIN: vox
!!!EED: Helmut Schaffrath
!!!EEV: 1.0
*-
